!!!OTL: Graf Friedrich Graf Friedrich wollt ausreiten
!!!ARE: Europa, Suedosteuropa, Rumaenien, Sathmar
!!!YOR: 2, S. 218
!!    ????
!!!SCT: Q0048L
!!!YEM: Copyright 1995, estate of Helmut Schaffrath.
**kern
*ICvox
*Ivox
*M4/4
*k[f#c#g#d#]
*E:
{8e
8g#
=1
8b
8cc#
8b
8a
8g#
8f#
8g#
8b
=2
4a
4g#
4f#}
{8e
8g#
=3
8b
8cc#
8b
8a
8g#
8f#
8g#
8b
=4
4a
4g#
4f#}
{4B
=5
4e
8e
8g#
8.f#
16f#
4f#
=6
8g#
8f#
8g#
8b
4a}
{4cc#
=7
8b
8a
8g#
8b
8a
8g#
8f#
8a
=8
4g#
4f#
4e}
{4B
=9
4e
8e
8g#
4f#
4f#
=10
8g#
8f#
8g#
8b
4a}
{8cc#
8cc#
=11
8b
8a
8g#
8b
8a
8g#
8f#
8a
=12
4g#
4f#
4e}
==
!!!AGN: Ballade, Hochzeit, Mord / Unfall, Tod
!!!ONB: ESAC (Essen Associative Code) Database: BALLADE
!!!AMT: simple quadruple
!!!AIN: vox
!!!EED: Helmut Schaffrath
!!!EEV: 1.0
*-
